public/images/logos/claudie-pierlot.svg

<svg width="506" height="145" viewBox="0 0 506 145" fill="none" xmlns="http://www.w3.org/2000/svg">
<path d="M66.2802 42.2896C65.2702 52.4396 56.7402 58.9996 44.5602 58.9996C31.1402 58.9996 21.7702 49.8296 21.7702 36.6996C21.7702 23.3996 31.1402 14.1096 44.5602 14.1096C56.8402 14.1096 65.2502 20.7296 65.9902 30.9796L66.0602 31.8696L86.4902 31.2396L86.4602 30.2996C85.7802 12.5196 68.5802 0.0996094 44.6602 0.0996094C18.8002 0.0996094 0.740234 15.1496 0.740234 36.6996C0.740234 58.2496 18.7602 73.2996 44.5702 73.2996C68.8402 73.2996 85.7602 61.0496 86.6602 42.8196L86.7102 41.8596L66.3802 41.4396L66.2802 42.2896ZM116.85 2.02961H96.4802V71.3696H144.85V56.7796L116.76 56.8796L116.85 2.02961ZM181.33 2.02961L151.02 71.3696H172.34L179.28 54.5996H209.27L216.21 71.3696H237.72L207.41 2.02961H181.33ZM203.78 41.4496H184.78L194.28 18.6696L203.78 41.4496ZM293.29 38.6796C293.29 51.1396 287.25 57.9996 276.29 57.9996C265.2 57.9996 259.1 50.9696 259.1 38.1996V2.37961H238.92V39.4596C238.92 61.0596 252.51 73.4596 276.2 73.4596C299.89 73.4596 313.47 60.8896 313.47 38.9796V2.37961H293.29V38.6796ZM360.42 2.01961H326.91V71.3596H360.33C387.66 71.3596 405.31 57.7496 405.31 36.6896C405.31 15.6296 387.69 2.01961 360.42 2.01961ZM347.48 15.2596H359.56C374.92 15.2596 384.46 23.4696 384.46 36.6896C384.46 49.8496 374.92 58.0296 359.56 58.0296H347.48V15.2596ZM434.3 2.02961H414.12V71.3696H434.3V2.02961ZM467.66 42.6396L500.24 42.7396V29.9896H467.66V15.6396L504.77 15.7396V2.02961H447.29V71.3596H505.54V57.2596H467.66V42.6396ZM101.54 144.96C98.7202 144.96 96.3802 144.36 94.5002 143.15C92.6302 141.94 91.2102 140.27 90.2402 138.14C89.2702 136.01 88.7102 133.53 88.5502 130.71L94.5902 129.08C94.7102 130.81 94.9802 132.48 95.4102 134.09C95.8302 135.7 96.5302 137.02 97.4902 138.05C98.4602 139.08 99.8002 139.59 101.54 139.59C103.31 139.59 104.65 139.1 105.56 138.11C106.47 137.12 106.92 135.7 106.92 133.85C106.92 131.64 106.42 129.85 105.41 128.51C104.4 127.16 103.13 125.8 101.6 124.43L93.3902 117.18C91.7802 115.77 90.5902 114.23 89.8302 112.56C89.0602 110.89 88.6802 108.83 88.6802 106.37C88.6802 102.79 89.7102 100.01 91.7602 98.0296C93.8102 96.0596 96.6102 95.0696 100.16 95.0696C102.09 95.0696 103.79 95.3196 105.26 95.8196C106.73 96.3196 107.96 97.0996 108.94 98.1396C109.93 99.1896 110.71 100.51 111.3 102.1C111.88 103.69 112.28 105.55 112.48 107.69L106.68 109.26C106.56 107.65 106.32 106.17 105.96 104.82C105.6 103.47 104.96 102.38 104.06 101.56C103.15 100.74 101.86 100.32 100.16 100.32C98.4702 100.32 97.1502 100.77 96.2002 101.68C95.2502 102.59 94.7802 103.93 94.7802 105.7C94.7802 107.19 95.0302 108.42 95.5402 109.38C96.0402 110.35 96.8602 111.33 97.9902 112.34L106.26 119.59C108.11 121.2 109.74 123.12 111.15 125.36C112.56 127.59 113.26 130.24 113.26 133.3C113.26 135.72 112.76 137.8 111.75 139.55C110.74 141.3 109.36 142.64 107.61 143.57C105.85 144.5 103.83 144.96 101.54 144.96ZM118.57 144.42V95.4996H137.54V100.57H125.4V116.76H135.24V121.59H125.4V139.53H137.66V144.42H118.57ZM155.41 144.96C151.95 144.96 149.26 144.24 147.35 142.79C145.44 141.34 144.11 139.39 143.36 136.93C142.61 134.48 142.24 131.74 142.24 128.72V111.45C142.24 108.15 142.61 105.27 143.36 102.81C144.1 100.35 145.43 98.4496 147.35 97.0996C149.26 95.7496 151.95 95.0796 155.41 95.0796C158.47 95.0796 160.9 95.6396 162.69 96.7696C164.48 97.8996 165.77 99.5096 166.56 101.6C167.35 103.69 167.74 106.21 167.74 109.15V113.02H161.28V109.58C161.28 107.77 161.19 106.17 161.01 104.78C160.83 103.39 160.34 102.31 159.53 101.55C158.72 100.79 157.38 100.4 155.48 100.4C153.55 100.4 152.14 100.81 151.25 101.64C150.36 102.47 149.79 103.63 149.53 105.14C149.27 106.65 149.14 108.41 149.14 110.42V129.81C149.14 132.27 149.34 134.21 149.74 135.64C150.14 137.07 150.81 138.09 151.73 138.69C152.66 139.29 153.9 139.6 155.47 139.6C157.32 139.6 158.65 139.19 159.46 138.36C160.27 137.54 160.77 136.4 160.97 134.95C161.17 133.5 161.27 131.81 161.27 129.88V126.26H167.73V129.88C167.73 132.86 167.37 135.49 166.64 137.76C165.91 140.03 164.67 141.81 162.9 143.08C161.13 144.33 158.63 144.96 155.41 144.96ZM186.76 144.96C183.46 144.96 180.82 144.32 178.85 143.03C176.88 141.74 175.47 139.9 174.62 137.5C173.77 135.11 173.35 132.3 173.35 129.07V110.53C173.35 107.31 173.78 104.54 174.65 102.23C175.52 99.9096 176.92 98.1396 178.88 96.9096C180.83 95.6796 183.46 95.0696 186.76 95.0696C190.06 95.0696 192.68 95.6896 194.61 96.9396C196.54 98.1896 197.94 99.9596 198.81 102.26C199.68 104.56 200.11 107.31 200.11 110.53V129.13C200.11 132.31 199.68 135.09 198.81 137.46C197.94 139.84 196.55 141.68 194.61 142.99C192.68 144.31 190.06 144.96 186.76 144.96ZM186.76 139.59C188.57 139.59 189.94 139.22 190.87 138.47C191.8 137.73 192.42 136.68 192.74 135.33C193.06 133.98 193.22 132.4 193.22 130.59V109.15C193.22 107.34 193.06 105.78 192.74 104.47C192.42 103.16 191.79 102.16 190.87 101.45C189.94 100.75 188.58 100.39 186.76 100.39C184.95 100.39 183.57 100.74 182.62 101.45C181.67 102.16 181.04 103.16 180.72 104.47C180.4 105.78 180.24 107.34 180.24 109.15V130.59C180.24 132.4 180.4 133.98 180.72 135.33C181.04 136.68 181.68 137.73 182.62 138.47C183.57 139.22 184.95 139.59 186.76 139.59ZM206.81 144.42V95.4996H211.46L225.35 127.99V95.4996H231.03V144.42H226.68L212.61 111.02V144.42H206.81ZM238.7 144.42V95.4996H249.33C252.95 95.4996 255.82 96.0496 257.94 97.1596C260.05 98.2696 261.56 99.9296 262.47 102.14C263.38 104.35 263.83 107.11 263.83 110.41V128.41C263.83 131.87 263.38 134.79 262.47 137.17C261.56 139.55 260.09 141.35 258.06 142.58C256.03 143.81 253.3 144.42 249.88 144.42H238.7ZM245.53 139.53H249.4C251.9 139.53 253.67 139.05 254.72 138.08C255.77 137.11 256.4 135.7 256.62 133.85C256.84 132 256.95 129.76 256.95 127.15V111.26C256.95 108.72 256.79 106.67 256.47 105.1C256.15 103.53 255.44 102.38 254.36 101.66C253.27 100.94 251.56 100.57 249.23 100.57H245.55V139.53H245.53ZM270.53 144.42V95.4996H289.5V100.57H277.36V116.76H287.2V121.59H277.36V139.53H289.62V144.42H270.53ZM308.82 144.42L309.73 95.4996H316.43L325.07 135.18L333.77 95.4996H340.41L341.32 144.42H335.82L335.28 108.91L327 144.42H323.13L314.92 108.91L314.38 144.42H308.82ZM346.15 144.42L356.54 95.4996H363.12L373.57 144.42H367.11L364.88 132.1H354.91L352.55 144.42H346.15ZM355.81 127.21H363.96L359.85 105.16L355.81 127.21ZM378.88 144.42V95.4996H385.58V144.42H378.88ZM393.5 144.42V95.4996H398.15L412.04 127.99V95.4996H417.72V144.42H413.37L399.3 111.02V144.42H393.5Z" fill="#010202"/>
</svg>

<svg xmlns="http://www.w3.org/2000/svg" width="506" height="145" fill="none"><path fill="#010202" d="M66.28 42.29C65.27 52.44 56.74 59 44.56 59c-13.42 0-22.79-9.17-22.79-22.3 0-13.3 9.37-22.59 22.79-22.59 12.28 0 20.69 6.62 21.43 16.87l.07.89 20.43-.63-.03-.94C85.78 12.52 68.58.1 44.66.1 18.8.1.74 15.15.74 36.7s18.02 36.6 43.83 36.6c24.27 0 41.19-12.25 42.09-30.48l.05-.96-20.33-.42-.1.85Zm50.57-40.26H96.48v69.34h48.37V56.78l-28.09.1.09-54.85Zm64.48 0-30.31 69.34h21.32l6.94-16.77h29.99l6.94 16.77h21.51L207.41 2.03h-26.08Zm22.45 39.42h-19l9.5-22.78 9.5 22.78Zm89.51-2.77c0 12.46-6.04 19.32-17 19.32-11.09 0-17.19-7.03-17.19-19.8V2.38h-20.18v37.08c0 21.6 13.59 34 37.28 34s37.27-12.57 37.27-34.48V2.38h-20.18v36.3Zm67.13-36.66h-33.51v69.34h33.42c27.33 0 44.98-13.61 44.98-34.67 0-21.06-17.62-34.67-44.89-34.67Zm-12.94 13.24h12.08c15.36 0 24.9 8.21 24.9 21.43 0 13.16-9.54 21.34-24.9 21.34h-12.08V15.26ZM434.3 2.03h-20.18v69.34h20.18V2.03Zm33.36 40.61 32.58.1V29.99h-32.58V15.64l37.11.1V2.03h-57.48v69.33h58.25v-14.1h-37.88V42.64ZM101.54 144.96c-2.82 0-5.16-.6-7.04-1.81-1.87-1.21-3.29-2.88-4.26-5.01-.97-2.13-1.53-4.61-1.69-7.43l6.04-1.63c.12 1.73.39 3.4.82 5.01.42 1.61 1.12 2.93 2.08 3.96.97 1.03 2.31 1.54 4.05 1.54 1.77 0 3.11-.49 4.02-1.48.91-.99 1.36-2.41 1.36-4.26 0-2.21-.5-4-1.51-5.34-1.01-1.35-2.28-2.71-3.81-4.08l-8.21-7.25c-1.61-1.41-2.8-2.95-3.56-4.62-.77-1.67-1.15-3.73-1.15-6.19 0-3.58 1.03-6.36 3.08-8.34 2.05-1.97 4.85-2.96 8.4-2.96 1.93 0 3.63.25 5.1.75 1.47.5 2.7 1.28 3.68 2.32.99 1.05 1.77 2.37 2.36 3.96.58 1.59.98 3.45 1.18 5.59l-5.8 1.57c-.12-1.61-.36-3.09-.72-4.44-.36-1.35-1-2.44-1.9-3.26-.91-.82-2.2-1.24-3.9-1.24-1.69 0-3.01.45-3.96 1.36-.95.91-1.42 2.25-1.42 4.02 0 1.49.25 2.72.76 3.68.5.97 1.32 1.95 2.45 2.96l8.27 7.25c1.85 1.61 3.48 3.53 4.89 5.77 1.41 2.23 2.11 4.88 2.11 7.94 0 2.42-.5 4.5-1.51 6.25s-2.39 3.09-4.14 4.02c-1.76.93-3.78 1.39-6.07 1.39Zm17.03-.54V95.5h18.97v5.07H125.4v16.19h9.84v4.83h-9.84v17.94h12.26v4.89h-19.09Zm36.84.54c-3.46 0-6.15-.72-8.06-2.17-1.91-1.45-3.24-3.4-3.99-5.86-.75-2.45-1.12-5.19-1.12-8.21v-17.27c0-3.3.37-6.18 1.12-8.64.74-2.46 2.07-4.36 3.99-5.71 1.91-1.35 4.6-2.02 8.06-2.02 3.06 0 5.49.56 7.28 1.69s3.08 2.74 3.87 4.83 1.18 4.61 1.18 7.55v3.87h-6.46v-3.44c0-1.81-.09-3.41-.27-4.8-.18-1.39-.67-2.47-1.48-3.23-.81-.76-2.15-1.15-4.05-1.15-1.93 0-3.34.41-4.23 1.24-.89.83-1.46 1.99-1.72 3.5s-.39 3.27-.39 5.28v19.39c0 2.46.2 4.4.6 5.83.4 1.43 1.07 2.45 1.99 3.05.93.6 2.17.91 3.74.91 1.85 0 3.18-.41 3.99-1.24.81-.82 1.31-1.96 1.51-3.41.2-1.45.3-3.14.3-5.07v-3.62h6.46v3.62c0 2.98-.36 5.61-1.09 7.88-.73 2.27-1.97 4.05-3.74 5.32-1.77 1.25-4.27 1.88-7.49 1.88Zm31.35 0c-3.3 0-5.94-.64-7.91-1.93-1.97-1.29-3.38-3.13-4.23-5.53-.85-2.39-1.27-5.2-1.27-8.43v-18.54c0-3.22.43-5.99 1.3-8.3.87-2.32 2.27-4.09 4.23-5.32 1.95-1.23 4.58-1.84 7.88-1.84s5.92.62 7.85 1.87c1.93 1.25 3.33 3.02 4.2 5.32.87 2.3 1.3 5.05 1.3 8.27v18.6c0 3.18-.43 5.96-1.3 8.33-.87 2.38-2.26 4.22-4.2 5.53-1.93 1.32-4.55 1.97-7.85 1.97Zm0-5.37c1.81 0 3.18-.37 4.11-1.12.93-.74 1.55-1.79 1.87-3.14.32-1.35.48-2.93.48-4.74v-21.44c0-1.81-.16-3.37-.48-4.68-.32-1.31-.95-2.31-1.87-3.02-.93-.7-2.29-1.06-4.11-1.06-1.81 0-3.19.35-4.14 1.06-.95.71-1.58 1.71-1.9 3.02-.32 1.31-.48 2.87-.48 4.68v21.44c0 1.81.16 3.39.48 4.74.32 1.35.96 2.4 1.9 3.14.95.75 2.33 1.12 4.14 1.12Zm20.05 4.83V95.5h4.65l13.89 32.49V95.5h5.68v48.92h-4.35l-14.07-33.4v33.4h-5.8Zm31.89 0V95.5h10.63c3.62 0 6.49.55 8.61 1.66 2.11 1.11 3.62 2.77 4.53 4.98.91 2.21 1.36 4.97 1.36 8.27v18c0 3.46-.45 6.38-1.36 8.76-.91 2.38-2.38 4.18-4.41 5.41-2.03 1.23-4.76 1.84-8.18 1.84H238.7Zm6.83-4.89h3.87c2.5 0 4.27-.48 5.32-1.45 1.05-.97 1.68-2.38 1.9-4.23.22-1.85.33-4.09.33-6.7v-15.89c0-2.54-.16-4.59-.48-6.16-.32-1.57-1.03-2.72-2.11-3.44-1.09-.72-2.8-1.09-5.13-1.09h-3.68v38.96h-.02Zm25 4.89V95.5h18.97v5.07h-12.14v16.19h9.84v4.83h-9.84v17.94h12.26v4.89h-19.09Zm38.29 0 .91-48.92h6.7l8.64 39.68 8.7-39.68h6.64l.91 48.92h-5.5l-.54-35.51-8.28 35.51h-3.87l-8.21-35.51-.54 35.51h-5.56Zm37.33 0 10.39-48.92h6.58l10.45 48.92h-6.46l-2.23-12.32h-9.97l-2.36 12.32h-6.4Zm9.66-17.21h8.15l-4.11-22.05-4.04 22.05Zm23.07 17.21V95.5h6.7v48.92h-6.7Zm14.62 0V95.5h4.65l13.89 32.49V95.5h5.68v48.92h-4.35l-14.07-33.4v33.4h-5.8Z"/></svg>
